X: 3371
M: 2/4
L: 1/16
K: G
|:\
|:\
g2fe d2c2 | B2c2 d4 | g2fe d2c2 | B2g2 A4 |\
g2fe d2c2 | B2c2 d4 | cBAG FGAc | B2G2G2z2 :|


